X:2
T:The Periwig
R:reel
M:4/4
L:1/8
K:Dmin
~f3a gfeg|fedf cA~A2|~f3a gfeg|1 fdec d3e:|2 fdec d3f||
|:cA~A2 cAAf|cAAG FDDf|cA~A2 cAAg|1 fdec d3f:|2 fdec d3e||



